X:1
T:Piano Concerto No. 21 "Elvira Madigan" (Andante)
C:Wolfgang Amadeus Mozart
M:6/8
L:1/8
Q:1/4=66
K:F
% A section — mm. 1–16 (theme in F major, range C4–D5)
|: c3 A2G | F3 A2c | d2c A2G | F3 C3 |
   G2A B2c | d3 c2A | G3 F2E | F6    |
   c3 A2G | F2A c2d | c2B A2G | F3 E3 |
   D2F A2c | d2c B2A | G3 F2E | F6   :|]
